X:1
T:No Party (No C's)
B:Bruce & Emmett
M:6/8
L:1/8
Q:1/8=300
K:G
|: g|dBG GFG|ABA ABd|ege dBd|gGG Gge|dBG GFG|ABA ABd|ege dBd|gGG G2:|
|: e|def gfg|efg a2f|gab efg|dBG cAF|def gfg|efg a2 f|gbb eaa|def g2 :|
